static/assets/img/icons/theme/communication/chat-6.svg

<svg height="24" viewBox="0 0 24 24" width="24" xmlns="http://www.w3.org/2000/svg"><g fill="none" fill-rule="evenodd"><path d="m0 0h24v24h-24z" opacity="0"/><path d="m14.486222 18-1.6887266 3.0565532c-.2670814.4834107-.8754756.6587803-1.3588863.3916989-.1408964-.0778444-.2609184-.1885516-.3498672-.3227142l-2.07220832-3.1255379h-4.01653358c-1.65685425 0-3-1.3431458-3-3v-9c0-1.65685425 1.34314575-3 3-3h14c1.6568542 0 3 1.34314575 3 3v9c0 1.6568542-1.3431458 3-3 3z" fill="#fff"/><path d="m6 7h9c.5522847 0 1 .44771525 1 1s-.4477153 1-1 1h-9c-.55228475 0-1-.44771525-1-1s.44771525-1 1-1zm0 4h5c.5522847 0 1 .4477153 1 1s-.4477153 1-1 1h-5c-.55228475 0-1-.4477153-1-1s.44771525-1 1-1z" fill="#000" stroke="#000"/></g></svg>

<svg width="24px" height="24px" viewBox="0 0 24 24" version="1.1" xmlns="http://www.w3.org/2000/svg" xmlns:xlink="http://www.w3.org/1999/xlink">
    <title>Icon For Chat#6</title>
    <g stroke="none" stroke-width="1" fill="none" fill-rule="evenodd">
        <rect opacity="0" x="0" y="0" width="24" height="24"></rect>
        <path d="M14.486222,18 L12.7974954,21.0565532 C12.530414,21.5399639 11.9220198,21.7153335 11.4386091,21.4482521 C11.2977127,21.3704077 11.1776907,21.2597005 11.0887419,21.1255379 L9.01653358,18 L5,18 C3.34314575,18 2,16.6568542 2,15 L2,6 C2,4.34314575 3.34314575,3 5,3 L19,3 C20.6568542,3 22,4.34314575 22,6 L22,15 C22,16.6568542 20.6568542,18 19,18 L14.486222,18 Z" fill="#fff"></path>
        <path d="M6,7 L15,7 C15.5522847,7 16,7.44771525 16,8 C16,8.55228475 15.5522847,9 15,9 L6,9 C5.44771525,9 5,8.55228475 5,8 C5,7.44771525 5.44771525,7 6,7 Z M6,11 L11,11 C11.5522847,11 12,11.4477153 12,12 C12,12.5522847 11.5522847,13 11,13 L6,13 C5.44771525,13 5,12.5522847 5,12 C5,11.4477153 5.44771525,11 6,11 Z" fill="#000" stroke="#000"></path>
    </g>
</svg>
